X:2421
T:Cradle Song. Hurr as Thurr 
C:John Nelson, Ramsey, 1904 (JFSS Vol VII, No 30) 
C:Traditional
O:Isle of Man
Z:Journal of Folk Song Society Vol VII, No.30
B:Kiaull Vannin 421 
L:1/8
M:6/8 
Q:140 
K:G 
B2c d2c|B2c d2c|c2B A2G|F2E !fermata!D2D| 
G G G B2A|(GF)E !fermata!D3|E2C D2D|(DE) F !fermata!G3|| 

